public/formular-icons/greece/upper-eta.svg

<svg style="vertical-align:0" xmlns="http://www.w3.org/2000/svg" width="2.009ex" height="1.545ex" viewBox="0 -683 888 683" xmlns:xlink="http://www.w3.org/1999/xlink"><defs><path id="a" d="M228 637q-34 0-36 4-1 2-1 8 0 24 11 33 2 1 17 1 41-2 136-2h63q29 0 45 1t20 0q16 0 16-10 0-2-2-14-5-17-10-20h-14q-4 0-9-1t-9 0q-39-1-50-3t-18-11q-3-4-32-123-7-26-15-58t-12-47l-4-15q0-2 145-2h145l1 3q0 3 31 123 28 115 28 123t-57 10q-23 0-30 2t-7 9q0 2 2 12 4 17 6 19t16 3q5 0 42-1t94-1q62 0 95 1t36 1q17 0 17-10 0-27-12-34h-14q-4 0-9-1t-9 0q-39-1-50-3t-18-11q-3-5-72-283T634 58q0-7 4-7 8-3 54-5h31q6-8 6-9t-3-18q-4-13-10-19h-15q-37 2-134 2H458q-17 0-21-1-17 0-17 9 0 5 3 14 5 19 10 21 4 1 15 1h6q27 0 60 3 6 1 8 1t6 5 6 9 6 18 7 28 11 43q7 28 11 45 33 132 33 133t-145 1H312l-33-135Q245 63 245 58q0-7 8-9t50-3h31q6-8 6-9t-3-18q-4-13-10-19h-15q-37 2-134 2H69Q52 2 48 1q-17 0-17 9 0 2 3 14 5 19 10 21 4 1 15 1h6q27 0 60 3 14 3 19 12 3 4 72 278t69 289q0 7-57 9Z"/></defs><g stroke="currentColor" fill="currentColor" stroke-width="0"><use data-c="1D43B" xlink:href="#a" transform="scale(1 -1)"/></g></svg>

<svg style="vertical-align: 0" xmlns="http://www.w3.org/2000/svg" width="2.009ex" height="1.545ex" role="img" focusable="false" viewBox="0 -683 888 683" xmlns:xlink="http://www.w3.org/1999/xlink"><defs><path id="MJX-98-TEX-I-1D43B" d="M228 637Q194 637 192 641Q191 643 191 649Q191 673 202 682Q204 683 219 683Q260 681 355 681Q389 681 418 681T463 682T483 682Q499 682 499 672Q499 670 497 658Q492 641 487 638H485Q483 638 480 638T473 638T464 637T455 637Q416 636 405 634T387 623Q384 619 355 500Q348 474 340 442T328 395L324 380Q324 378 469 378H614L615 381Q615 384 646 504Q674 619 674 627T617 637Q594 637 587 639T580 648Q580 650 582 660Q586 677 588 679T604 682Q609 682 646 681T740 680Q802 680 835 681T871 682Q888 682 888 672Q888 645 876 638H874Q872 638 869 638T862 638T853 637T844 637Q805 636 794 634T776 623Q773 618 704 340T634 58Q634 51 638 51Q646 48 692 46H723Q729 38 729 37T726 19Q722 6 716 0H701Q664 2 567 2Q533 2 504 2T458 2T437 1Q420 1 420 10Q420 15 423 24Q428 43 433 45Q437 46 448 46H454Q481 46 514 49Q520 50 522 50T528 55T534 64T540 82T547 110T558 153Q565 181 569 198Q602 330 602 331T457 332H312L279 197Q245 63 245 58Q245 51 253 49T303 46H334Q340 38 340 37T337 19Q333 6 327 0H312Q275 2 178 2Q144 2 115 2T69 2T48 1Q31 1 31 10Q31 12 34 24Q39 43 44 45Q48 46 59 46H65Q92 46 125 49Q139 52 144 61Q147 65 216 339T285 628Q285 635 228 637Z"></path></defs><g stroke="currentColor" fill="currentColor" stroke-width="0" transform="scale(1,-1)"><g data-mml-node="math"><g data-mml-node="mi"><use data-c="1D43B" xlink:href="#MJX-98-TEX-I-1D43B"></use></g></g></g></svg>
